X: 118106
T: WILL YOU RUN AWAY WITH ME
Q: "Reel."
R:  Reel.
%R: reel
B: James Kerr "Merry Melodies" v.1 p.18 s.1 #6
Z: 2017 John Chambers <jc:trillian.mit.edu>
M: C
L: 1/8
K: Am
ue |\
vc>uc c/c/c ue2dc | BGdG BcdB |\
c>c c/c/c e2dc | BGdB cA A :|\
ug |\
ecgc aceg | BGdG eGBd |
ecgc aceg | ecdB cAAg |\
ecgc aceg | BGdG eGdB |\
AcBd cedg | edcB cA "_Fine"A |]

% %newpage
%%sep 1 1 500
%%sep 1 1 500
%%center Set. 30th

%%sep 1 1 500
%%sep 1 1 500

